X:1
T: A Trip to the Cottage
C:
R:Jig
Q:180
K:G
M:6/8
L:1/16
Bc|:d2c2d2 B2G2B2|c2B2c2 A2F2A2|D2G2G2 F2A2A2|G2B2B2 A2B2c2|
d2c2d2 B2G2B2|c2B2c2 A2F2A2|D2G2G2 F2G2A2|B2G2G2 G4Bc:|2B2G2G2 G4e2|
|:g2f2e2 d4d2|e2d2c2 B2c2d2|e2c2A2 d2B2G2|F2A2G2 F2E2D2|
g2f2e2 d4d2|e2d2c2 B2c2d2|e2f2g2 e2a2g2|1f2d2d2 d4e2:|2f2d2d2 d4||
